X: 10932
T: Drumline Castle
R: reel
M: 4/4
K: Cmajor
GAB|:c2 GF ECDC|B,CDE FGAB|c2 d/c/B cGEG|AEGE D/E/D DB|
c2 GF ECDC|B,CDE FGAB|c2 d/c/B cGEG|A2 GF ECEG:|
c2 ec gceg|aege dcAB|c2 d/c/B cGEG|AEGE D/E/D DB|
c2 ec gceg|aege dcAB|c2 d/c/B cGEG|A2 GF ECEG:|

